packages/foundations/assets/icons/functional/images/transportation/airplane_28.svg

<svg width="28" height="28" viewBox="0 0 28 28" fill="none" xmlns="http://www.w3.org/2000/svg">
<g clip-path="url(#clip0_187_814)">
<path fill-rule="evenodd" clip-rule="evenodd" d="M18.2333 7.9072C21.271 7.02433 25.0204 7.6862 26.0634 10.6554C26.7478 12.6039 25.5972 14.762 23.6077 15.3698C22.1309 15.8358 20.6531 16.3006 19.1745 16.7641L15.6337 23.266C15.4529 23.6008 15.1357 23.9152 14.8326 24.027C14.5296 24.1388 14.4079 24.1881 14.0337 24.2723C12.9004 24.5276 11.782 23.77 11.782 22.5516C11.7784 21.3977 11.7762 20.2438 11.7755 19.0898L9.22274 19.8911C7.06391 20.5284 4.85868 19.5572 3.90518 17.3103C3.32775 15.6855 2.63737 13.7281 1.83402 11.4381C1.54752 10.6255 1.92378 9.7379 2.68841 9.36882L2.81233 9.31494L3.43308 9.07538C4.14463 8.80028 4.94382 8.8977 5.56429 9.32788L5.69442 9.42514L7.86161 11.1632L18.2333 7.9072ZM23.198 9.84773C22.0795 9.26178 20.196 9.07538 18.5403 9.64303C15.0061 10.752 11.4729 11.8621 7.9405 12.9733C7.69687 13.0498 7.37384 13.0266 7.13068 12.821C6.2845 12.1449 5.44041 11.4677 4.59841 10.7894C4.47038 10.6864 4.29875 10.6297 4.06364 10.7078C3.87679 10.7777 3.69116 10.849 3.50674 10.9217L5.5485 16.709C5.96983 17.82 7.21942 18.6071 8.7133 18.2169C9.93947 17.8351 11.1642 17.4513 12.3874 17.0654C12.9173 16.8994 13.5241 17.2268 13.5241 17.8989C13.5286 19.4489 13.5313 20.9989 13.532 22.5489C13.532 22.5647 13.5461 22.5886 13.5774 22.5829C13.7293 22.5413 13.895 22.4966 14.0746 22.4489L14.0953 22.4317L17.8071 15.6172C17.8974 15.4514 18.1098 15.2601 18.3129 15.2011C19.9009 14.699 21.4907 14.1988 23.0821 13.7006C24.0947 13.3815 24.6392 12.4156 24.4252 11.2916C23.67 11.5331 22.9029 11.7803 22.1239 12.0329C21.6639 12.1811 21.171 11.9283 21.0228 11.4683C20.8853 11.0412 21.0971 10.5326 21.5874 10.3672C22.123 10.1925 22.6598 10.0194 23.198 9.84773ZM11.0876 14.6679C11.2958 15.3145 10.9406 16.0084 10.2931 16.2175C9.64559 16.4257 8.95171 16.0705 8.74346 15.4221C8.53521 14.7755 8.89046 14.0816 9.53796 13.8734C10.1855 13.6651 10.8793 14.0204 11.0876 14.6679ZM14.9165 13.4348C15.1247 14.0814 14.7695 14.7753 14.122 14.9844C13.4745 15.1927 12.7806 14.8374 12.5724 14.1891C12.3641 13.5424 12.7194 12.8486 13.3669 12.6403C14.0144 12.4321 14.7082 12.7873 14.9165 13.4348ZM18.7451 12.2009C18.9533 12.8484 18.5981 13.5423 17.9506 13.7505C17.3031 13.9596 16.6101 13.6035 16.4009 12.956C16.1927 12.3085 16.5479 11.6146 17.1954 11.4064C17.8429 11.1981 18.5368 11.5543 18.7451 12.2009ZM11.4322 4.23635C12.224 5.02353 13.015 5.81132 13.8052 6.59972C14.1476 6.94074 14.1487 7.49476 13.8077 7.83716C13.493 8.15322 12.9518 8.21112 12.5703 7.83967C11.774 7.04962 10.9794 6.25821 10.1866 5.46542C10.1682 5.44649 10.1132 5.42813 10.0765 5.43787C9.89787 5.48524 9.71979 5.53462 9.54223 5.58603C9.49328 5.59974 9.45095 5.63917 9.45095 5.69785C9.80148 6.42384 10.1562 7.14921 10.515 7.87398C10.7272 8.30811 10.5474 8.83213 10.1132 9.04439C9.7101 9.2415 9.15539 9.07538 8.94281 8.64267C8.58027 7.90465 8.21949 7.16595 7.8605 6.42657C7.43549 5.43382 7.9405 4.22313 9.07243 3.90027C9.24964 3.84972 9.42737 3.80044 9.60561 3.75241C10.216 3.58064 10.8861 3.69346 11.4322 4.23635Z" fill="#1A1C1F"/>
</g>
<defs>
<clipPath id="clip0_187_814">
<rect width="28" height="28" fill="white"/>
</clipPath>
</defs>
</svg>

<svg xmlns="http://www.w3.org/2000/svg" width="28" height="28" fill="none"><g clip-path="url(#a)"><path fill="#1A1C1F" fill-rule="evenodd" d="M18.233 7.907c3.038-.883 6.787-.22 7.83 2.748.685 1.949-.466 4.107-2.455 4.715q-2.215.699-4.434 1.394l-3.54 6.502c-.181.335-.498.65-.801.761-.303.112-.425.161-.8.245-1.133.256-2.251-.502-2.251-1.72q-.006-1.731-.007-3.462l-2.552.801c-2.16.637-4.364-.334-5.318-2.58a1564 1564 0 0 1-2.071-5.873c-.286-.812.09-1.7.854-2.07l.124-.053.621-.24a2.29 2.29 0 0 1 2.131.253l.13.097 2.168 1.738zm4.965 1.94c-1.119-.585-3.002-.772-4.658-.204q-5.3 1.664-10.6 3.33a.87.87 0 0 1-.81-.152q-1.268-1.014-2.532-2.032c-.128-.103-.3-.16-.534-.081q-.28.105-.557.214l2.041 5.787c.422 1.111 1.671 1.898 3.165 1.508q1.84-.573 3.674-1.152c.53-.166 1.137.162 1.137.834q.007 2.325.008 4.65c0 .016.014.04.045.034q.228-.062.498-.134l.02-.017 3.712-6.815a.96.96 0 0 1 .506-.416 1758 1758 0 0 1 4.77-1.5c1.012-.32 1.556-1.285 1.342-2.41q-1.132.364-2.301.742a.875.875 0 1 1-.537-1.666q.804-.262 1.611-.52m-12.11 4.82a1.232 1.232 0 1 1-2.346.755 1.232 1.232 0 0 1 2.346-.754m3.829-1.232a1.232 1.232 0 1 1-2.346.754 1.232 1.232 0 0 1 2.345-.754m3.828-1.234a1.231 1.231 0 1 1-2.344.755 1.231 1.231 0 0 1 2.344-.755m-7.313-7.965Q12.62 5.417 13.805 6.6a.875.875 0 0 1-1.235 1.24q-1.194-1.185-2.383-2.375a.14.14 0 0 0-.11-.027 25 25 0 0 0-.535.148c-.049.014-.091.053-.091.112q.525 1.089 1.064 2.176a.875.875 0 0 1-.402 1.17.9.9 0 0 1-1.17-.401Q8.398 7.536 7.86 6.427A1.862 1.862 0 0 1 9.072 3.9q.266-.075.534-.148c.61-.171 1.28-.059 1.826.484" clip-rule="evenodd"/></g><defs><clipPath id="a"><path fill="#fff" d="M0 0h28v28H0z"/></clipPath></defs></svg>
